credit-card-chip.svg

<svg fill="currentColor" viewBox="0 0 24 24"><path d="M20 4H4c-1.11 0-2 .89-2 2v12c0 1.11.89 2 2 2h16c1.11 0 2-.89 2-2V6c0-1.11-.89-2-2-2M10 14H5v-4h5z"/></svg>

<svg  viewBox="0 0 24 24" fill="currentColor"><path  d="M20 4H4C2.89 4 2 4.89 2 6V18C2 19.11 2.89 20 4 20H20C21.11 20 22 19.11 22 18V6C22 4.89 21.11 4 20 4M10 14H5V10H10V14Z"/></svg>
